elementary-xfce/status/64/image-loading.svg

<?xml version="1.0" encoding="UTF-8" standalone="no"?>
<svg
   version="1.0"
   width="64"
   height="64"
   id="svg6396"
   xmlns="http://www.w3.org/2000/svg"
   xmlns:svg="http://www.w3.org/2000/svg"
   xmlns:rdf="http://www.w3.org/1999/02/22-rdf-syntax-ns#"
   xmlns:cc="http://creativecommons.org/ns#"
   xmlns:dc="http://purl.org/dc/elements/1.1/">
  <metadata
     id="metadata8">
    <rdf:RDF>
      <cc:Work
         rdf:about="">
        <dc:format>image/svg+xml</dc:format>
        <dc:type
           rdf:resource="http://purl.org/dc/dcmitype/StillImage" />
      </cc:Work>
    </rdf:RDF>
  </metadata>
  <defs
     id="defs6398" />
  <path
     style="opacity:0.3;fill:#ffffff;fill-opacity:1;fill-rule:evenodd;stroke:none"
     d="m 32.879669,24.224776 h -1.340427 l -1.340424,9.382983 6.702129,5.361705 10e-7,-1.340427 -4.021278,-5.361704 z"
     id="path2839-7" />
  <path
     style="opacity:0.3;fill:#ffffff;fill-opacity:1;fill-rule:evenodd;stroke:none"
     d="m 31.9375,19.000031 c -7.728,0 -14,6.272 -14,14 0,7.728 6.272,14 14,14 7.728,0 14,-6.272 14,-14 0,-7.728 -6.272,-14 -14,-14 z m 0,2 c 6.624,0 12,5.376 12,12 0,6.624 -5.376,12 -12,12 -6.624,0 -12,-5.376 -12,-12 0,-6.624 5.376,-12 12,-12 z"
     id="path2837-3" />
  <path
     style="opacity:0.3;fill:#ffffff;fill-opacity:1;fill-rule:evenodd;stroke:none"
     d="m 17,4.00003 v 2 h 11 v -2 z m 19,0 v 2 h 11 v -2 z M 3,18.000031 v 11 h 2 v -11 z m 56,0 v 11 h 2 v -11 z m -56,19 v 11 h 2 v -11 z m 56,0 v 11 h 2 v -11 z m -42,23 v 2 h 11 v -2 z m 19,0 v 2 h 11 v -2 z"
     id="path3318-7" />
  <path
     style="opacity:0.3;fill:none;stroke:#ffffff;stroke-width:2;stroke-linecap:butt;stroke-linejoin:miter;stroke-miterlimit:4;stroke-dasharray:none;stroke-opacity:1"
     id="path2387"
     d="M 54.666666,61.000031 C 60,61.000031 60,61.000031 60,55.666697 M 60,10.333365 C 60,5.0000305 60,5.0000305 54.666666,5.0000305 M 4,55.666697 c 0,5.333334 0,5.333334 5.3333333,5.333334 m 0,-56.0000005 C 3.9999997,5.0000305 4,5.0000305 4,10.333365" />
  <path
     style="opacity:0.5;fill:#000000;fill-opacity:1;fill-rule:evenodd;stroke:none"
     d="m 32.879669,23.287245 h -1.340427 l -1.340424,9.382983 6.702129,5.361705 10e-7,-1.340427 -4.021278,-5.361704 z"
     id="path2839" />
  <path
     style="opacity:0.5;fill:#000000;fill-opacity:1;fill-rule:evenodd;stroke:none"
     d="m 31.9375,18.0625 c -7.728,0 -14,6.272 -14,14 0,7.728 6.272,14 14,14 7.728,0 14,-6.272 14,-14 0,-7.728 -6.272,-14 -14,-14 z m 0,2 c 6.624,0 12,5.376 12,12 0,6.624 -5.376,12 -12,12 -6.624,0 -12,-5.376 -12,-12 0,-6.624 5.376,-12 12,-12 z"
     id="path2837" />
  <path
     style="opacity:0.5;fill:#000000;fill-opacity:1;fill-rule:evenodd;stroke:none"
     d="M 17,3 V 5 H 28 V 3 Z M 36,3 V 5 H 47 V 3 Z M 3,17 V 28 H 5 V 17 Z m 56,0 v 11 h 2 V 17 Z M 3,36 V 47 H 5 V 36 Z m 56,0 v 11 h 2 V 36 Z M 17,59 v 2 h 11 v -2 z m 19,0 v 2 h 11 v -2 z"
     id="path3318" />
  <path
     style="opacity:0.5;fill:none;stroke:#000000;stroke-width:2;stroke-linecap:butt;stroke-linejoin:miter;stroke-miterlimit:4;stroke-dasharray:none;stroke-opacity:1"
     id="path6300"
     d="m 54.666682,60.000015 c 5.333333,0 5.333333,0 5.333333,-5.333333 m 0,-45.3333335 c 0,-5.3333334 0,-5.3333334 -5.333333,-5.3333334 M 4.0000155,54.666682 c 0,5.333333 0,5.333333 5.3333334,5.333333 m 0,-55.9999999 c -5.3333337,0 -5.3333334,0 -5.3333334,5.3333334" />
</svg>

<?xml version="1.0" encoding="UTF-8" standalone="no"?>
<svg
   xmlns:dc="http://purl.org/dc/elements/1.1/"
   xmlns:cc="http://creativecommons.org/ns#"
   xmlns:rdf="http://www.w3.org/1999/02/22-rdf-syntax-ns#"
   xmlns:svg="http://www.w3.org/2000/svg"
   xmlns="http://www.w3.org/2000/svg"
   version="1.0"
   width="64.000031"
   height="64.000031"
   id="svg6396">
  <metadata
     id="metadata8">
    <rdf:RDF>
      <cc:Work
         rdf:about="">
        <dc:format>image/svg+xml</dc:format>
        <dc:type
           rdf:resource="http://purl.org/dc/dcmitype/StillImage" />
        <dc:title />
      </cc:Work>
    </rdf:RDF>
  </metadata>
  <defs
     id="defs6398" />
  <path
     style="opacity:0.3;fill:#ffffff;fill-opacity:1;fill-rule:evenodd;stroke:none"
     d="m 32.879669,24.224776 -1.340427,0 -1.340424,9.382983 6.702129,5.361705 10e-7,-1.340427 -4.021278,-5.361704 -10e-7,-8.042557 z"
     id="path2839-7" />
  <path
     style="opacity:0.3;fill:#ffffff;fill-opacity:1;fill-rule:evenodd;stroke:none"
     d="m 31.9375,19.000031 c -7.728,0 -14,6.272 -14,14 0,7.728 6.272,14 14,14 7.728,0 14,-6.272 14,-14 0,-7.728 -6.272,-14 -14,-14 z m 0,2 c 6.624,0 12,5.376 12,12 0,6.624 -5.376,12 -12,12 -6.624,0 -12,-5.376 -12,-12 0,-6.624 5.376,-12 12,-12 z"
     id="path2837-3" />
  <path
     style="opacity:0.3;fill:#ffffff;fill-opacity:1;fill-rule:evenodd;stroke:none"
     d="m 17,4.00003 0,2 11,0 0,-2 -11,0 z m 19,0 0,2 11,0 0,-2 -11,0 z m -33,14.000001 0,11 2,0 0,-11 -2,0 z m 56,0 0,11 2,0 0,-11 -2,0 z m -56,19 0,11 2,0 0,-11 -2,0 z m 56,0 0,11 2,0 0,-11 -2,0 z m -42,23 0,2 11,0 0,-2 -11,0 z m 19,0 0,2 11,0 0,-2 -11,0 z"
     id="path3318-7" />
  <path
     style="opacity:0.3;fill:none;stroke:#ffffff;stroke-width:1.99999988;stroke-linecap:butt;stroke-linejoin:miter;stroke-miterlimit:4;stroke-opacity:1;stroke-dasharray:none"
     id="path2387"
     d="M 54.666666,61.000031 C 60,61.000031 60,61.000031 60,55.666697 M 60,10.333365 C 60,5.0000305 60,5.0000305 54.666666,5.0000305 M 4,55.666697 c 0,5.333334 0,5.333334 5.3333333,5.333334 m 0,-56.0000005 C 3.9999997,5.0000305 4,5.0000305 4,10.333365" />
  <path
     style="opacity:0.5;fill:#000000;fill-opacity:1;fill-rule:evenodd;stroke:none"
     d="m 32.879669,23.287245 -1.340427,0 -1.340424,9.382983 6.702129,5.361705 10e-7,-1.340427 -4.021278,-5.361704 -10e-7,-8.042557 z"
     id="path2839" />
  <path
     style="opacity:0.5;fill:#000000;fill-opacity:1;fill-rule:evenodd;stroke:none"
     d="M 31.9375 18.0625 C 24.2095 18.0625 17.9375 24.3345 17.9375 32.0625 C 17.9375 39.7905 24.2095 46.0625 31.9375 46.0625 C 39.6655 46.0625 45.9375 39.7905 45.9375 32.0625 C 45.9375 24.3345 39.6655 18.0625 31.9375 18.0625 z M 31.9375 20.0625 C 38.5615 20.0625 43.9375 25.4385 43.9375 32.0625 C 43.9375 38.6865 38.5615 44.0625 31.9375 44.0625 C 25.3135 44.0625 19.9375 38.6865 19.9375 32.0625 C 19.9375 25.4385 25.3135 20.0625 31.9375 20.0625 z "
     id="path2837" />
  <path
     style="opacity:0.5;fill:#000000;fill-opacity:1;fill-rule:evenodd;stroke:none"
     d="M 17 3 L 17 5 L 28 5 L 28 3 L 17 3 z M 36 3 L 36 5 L 47 5 L 47 3 L 36 3 z M 3 17 L 3 28 L 5 28 L 5 17 L 3 17 z M 59 17 L 59 28 L 61 28 L 61 17 L 59 17 z M 3 36 L 3 47 L 5 47 L 5 36 L 3 36 z M 59 36 L 59 47 L 61 47 L 61 36 L 59 36 z M 17 59 L 17 61 L 28 61 L 28 59 L 17 59 z M 36 59 L 36 61 L 47 61 L 47 59 L 36 59 z "
     id="path3318" />
  <path
     style="opacity:0.5;fill:none;stroke:#000000;stroke-width:2;stroke-linecap:butt;stroke-linejoin:miter;stroke-miterlimit:4;stroke-opacity:1;stroke-dasharray:none"
     id="path6300"
     d="m 54.666682,60.000015 c 5.333333,0 5.333333,0 5.333333,-5.333333 m 0,-45.3333335 c 0,-5.3333334 0,-5.3333334 -5.333333,-5.3333334 M 4.0000155,54.666682 c 0,5.333333 0,5.333333 5.3333334,5.333333 m 0,-55.9999999 c -5.3333337,0 -5.3333334,0 -5.3333334,5.3333334" />
</svg>
